svg/color/usds.svg

<svg width="64" height="65" viewBox="0 0 64 65" fill="none" xmlns="http://www.w3.org/2000/svg">
<g clip-path="url(#clip0_11313_5559)">
<path d="M64 32C64 49.6731 49.6731 64 32 64C14.3269 64 0 49.6731 0 32C0 14.3269 14.3269 0 32 0C49.6731 0 64 14.3269 64 32Z" fill="#68B1F5"/>
<path d="M31.9014 56.8001C31.9014 56.8001 51.1347 47.6776 51.1347 37.199C51.1347 29.0724 51.1347 23.7933 51.1347 15.6666C38.9247 10.0717 24.8796 10.0659 12.6666 15.6544C12.6777 23.7852 12.6678 29.0683 12.6678 37.199C12.6678 47.6776 31.9014 56.8001 31.9014 56.8001Z" fill="black"/>
<path fill-rule="evenodd" clip-rule="evenodd" d="M35.424 19.0218H32.9442L32.6464 21.1406C32.5555 21.1385 32.4641 21.1374 32.3722 21.1374C28.2254 21.1374 24.9651 23.5683 24.9651 27.3719C24.9651 31.2122 28.017 32.1847 30.9918 32.9139L30.1709 38.7546C28.7695 38.1903 27.5297 37.1233 26.5952 35.6656L23.7639 38.0393C24.9532 39.993 27.1989 41.3948 29.7166 41.9871L29.369 44.4604H31.8488L32.1528 42.2978C32.2354 42.2996 32.3181 42.3005 32.4008 42.3005C36.6334 42.3005 40.1797 39.8124 40.1797 35.78C40.1797 31.7544 36.9431 30.7558 33.8737 30.0528L34.6296 24.6741C35.7656 25.1824 36.6349 26.0658 37.3484 27.1717L40.0081 24.8838C39.0117 23.327 37.2921 22.0564 35.079 21.4767L35.424 19.0218ZM32.2168 24.1976C30.0365 24.2114 28.5113 25.3233 28.5113 27.0001C28.5113 28.469 29.5758 29.0065 31.4722 29.4958L32.2168 24.1976ZM33.3899 33.4951L32.5865 39.2115C34.8674 39.1894 36.5762 38.1048 36.5762 36.1518C36.5762 34.5625 35.3333 34.0008 33.3899 33.4951Z" fill="#68B1F5"/>
</g>
<rect x="0.5" y="0.803711" width="63" height="63" rx="31.5" stroke="#070B14" stroke-opacity="0.15"/>
<defs>
<clipPath id="clip0_11313_5559">
<rect y="0.303711" width="64" height="64" rx="32" fill="white"/>
</clipPath>
</defs>
</svg>

<svg xmlns="http://www.w3.org/2000/svg" width="64" height="65" fill="none" viewBox="0 0 64 65"><g clip-path="url(#usds_svg-a)"><path fill="#68B1F5" d="M64 32c0 17.673-14.327 32-32 32S0 49.673 0 32 14.327 0 32 0s32 14.327 32 32"/><path fill="#000" d="M31.901 56.8s19.234-9.122 19.234-19.6V15.667a46.2 46.2 0 0 0-38.468-.013c.01 8.131 0 13.414 0 21.545 0 10.479 19.234 19.601 19.234 19.601"/><path fill="#68B1F5" fill-rule="evenodd" d="M35.424 19.022h-2.48l-.298 2.119q-.136-.004-.274-.004c-4.147 0-7.407 2.431-7.407 6.235 0 3.84 3.052 4.813 6.027 5.542l-.821 5.84c-1.401-.564-2.641-1.63-3.576-3.088l-2.831 2.373c1.19 1.954 3.435 3.356 5.953 3.948l-.348 2.473h2.48l.304-2.162q.123.003.248.002c4.232 0 7.779-2.488 7.779-6.52 0-4.026-3.237-5.024-6.306-5.727l.756-5.379c1.136.508 2.005 1.392 2.718 2.498l2.66-2.288c-.996-1.557-2.716-2.828-4.929-3.407zm-3.207 5.176c-2.18.013-3.706 1.125-3.706 2.802 0 1.469 1.065 2.006 2.961 2.496zm1.173 9.297-.803 5.717c2.28-.023 3.99-1.107 3.99-3.06 0-1.59-1.244-2.151-3.187-2.657" clip-rule="evenodd"/></g><rect width="63" height="63" x=".5" y=".804" stroke="#070B14" stroke-opacity=".15" rx="31.5"/><defs><clipPath id="usds_svg-a"><rect width="64" height="64" y=".304" fill="#fff" rx="32"/></clipPath></defs></svg>
